;FLAVOR:Marlin
;TIME:3440
;Filament used: 3.38014m
;Layer height: 0.2
;Generated with Cura_SteamEngine 3.4.1
M190 S71
M104 S200
M109 S200
M82 ;absolute extrusion mode
G28 ;Home
G1 Z15.0 F6000 ;Move the platform down 15mm
;Prime the extruder
G92 E0
G1 F200 E3
G92 E0
G92 E0
G1 F2400 E-5
;LAYER_COUNT:119
;LAYER:0
M107
M204 S5000
M205 X30 Y30
G0 F3600 X82.74 Y82.608 Z0.2
M204 S500
M205 X20 Y20
;TYPE:SKIRT
G1 F2400 E0
G1 F1800 X83.221 Y82.153 E0.02202
G1 X83.961 Y81.511 E0.05461
G1 X84.582 Y81.025 E0.08083
G1 X85.25 Y80.603 E0.10711
G1 X85.809 Y80.318 E0.12798
G1 X86.697 Y79.909 E0.1605
G1 X87.43 Y79.616 E0.18676
G1 X88.189 Y79.398 E0.21302
G1 X88.826 Y79.277 E0.23459
G1 X89.792 Y79.135 E0.26706
G1 X90.931 Y79.052 E0.30504
G1 X140.654 Y79.085 E1.95884
G1 X141.443 Y79.125 E1.98511
G1 X142.223 Y79.246 E2.01137
G1 X142.788 Y79.384 E2.03071
G1 X143.721 Y79.65 E2.06298
G1 X144.468 Y79.905 E2.08923
G1 X145.186 Y80.234 E2.1155
G1 X145.727 Y80.543 E2.13622
G1 X146.548 Y81.058 E2.16846
G1 X147.195 Y81.511 E2.19473
G1 X147.792 Y82.027 E2.22097
G1 X148.21 Y82.459 E2.24097
G1 X148.844 Y83.166 E2.27255
G1 X149.341 Y83.779 E2.2988
G1 X149.773 Y84.44 E2.32506
G1 X150.06 Y84.978 E2.34534
G1 X150.482 Y85.851 E2.37759
G1 X150.789 Y86.579 E2.40387
G1 X151.021 Y87.334 E2.43014
G1 X151.145 Y87.92 E2.45006
G1 X151.307 Y88.859 E2.48176
G1 X151.402 Y89.643 E2.50802
G1 X151.417 Y90.432 E2.53427
G1 X151.372 Y91.055 E2.55505
G1 X151.264 Y92.017 E2.58724
G1 X151.137 Y92.796 E2.6135
G1 X150.931 Y93.559 E2.63978
G1 X150.719 Y94.133 E2.66013
G1 X133.141 Y136.551 E4.1873
G1 X132.802 Y137.264 E4.21356
G1 X132.393 Y137.94 E4.23984
G1 X131.917 Y138.57 E4.2661
G1 X131.381 Y139.149 E4.29235
G1 X130.788 Y139.671 E4.31862
G1 X130.073 Y140.177 E4.34776
G1 X129.584 Y140.483 E4.36694
G1 X128.894 Y140.868 E4.39322
G1 X128.169 Y141.18 E4.41947
G1 X127.416 Y141.418 E4.44574
G1 X126.643 Y141.579 E4.472
G1 X125.857 Y141.66 E4.49828
G1 X124.937 Y141.654 E4.52888
G1 X124.356 Y141.616 E4.54825
G1 X123.572 Y141.525 E4.5745
G1 X122.8 Y141.355 E4.60079
G1 X121.878 Y141.038 E4.63322
G1 X84.955 Y125.732 E5.96262
G1 X84.242 Y125.393 E5.98888
G1 X83.567 Y124.984 E6.01513
G1 X82.788 Y124.382 E6.04787
G1 X82.554 Y124.176 E6.05824
G1 X81.988 Y123.624 E6.08454
G1 X81.481 Y123.019 E6.11079
G1 X80.912 Y122.149 E6.14537
G1 X80.756 Y121.872 E6.15594
G1 X80.403 Y121.165 E6.18222
G1 X80.125 Y120.426 E6.20848
G1 X79.877 Y119.433 E6.24252
G1 X79.822 Y119.129 E6.2528
G1 X79.721 Y118.345 E6.27909
G1 X79.697 Y117.731 E6.29953
G1 X79.73 Y89.804 E7.22839
G1 X79.771 Y89.015 E7.25466
G1 X79.891 Y88.235 E7.28091
G1 X80.04 Y87.634 E7.30151
G1 X80.314 Y86.692 E7.33414
G1 X80.573 Y85.946 E7.3604
G1 X80.906 Y85.23 E7.38666
G1 X81.232 Y84.67 E7.40822
G1 X81.76 Y83.844 E7.44082
G1 X82.218 Y83.201 E7.46708
G1 X82.74 Y82.608 E7.49335
M204 S5000
M205 X30 Y30
G0 F3600 X83.054 Y82.858
M204 S500
M205 X20 Y20
G1 F1800 X83.483 Y82.455 E7.51293
G1 X84.223 Y81.813 E7.54552
G1 X84.829 Y81.34 E7.57108
G1 X85.481 Y80.933 E7.59665
G1 X85.976 Y80.682 E7.61511
G1 X86.864 Y80.273 E7.64762
G1 X87.579 Y79.988 E7.67323
G1 X88.319 Y79.778 E7.69881
G1 X88.884 Y79.673 E7.71792
G1 X89.85 Y79.531 E7.7504
G1 X90.931 Y79.452 E7.78645
G1 X140.654 Y79.485 E9.44024
G1 X141.422 Y79.525 E9.46582
G1 X142.182 Y79.645 E9.49141
G1 X142.678 Y79.769 E9.50842
G1 X143.611 Y80.035 E9.54068
G1 X144.339 Y80.284 E9.56628
G1 X145.037 Y80.607 E9.59186
G1 X145.514 Y80.882 E9.61017
G1 X146.335 Y81.397 E9.6424
G1 X146.965 Y81.839 E9.668
G1 X147.545 Y82.344 E9.69358
G1 X147.912 Y82.726 E9.7112
G1 X148.546 Y83.433 E9.74278
G1 X149.029 Y84.031 E9.76835
G1 X149.448 Y84.677 E9.79396
G1 X149.699 Y85.152 E9.81183
G1 X150.121 Y86.025 E9.84408
G1 X150.42 Y86.734 E9.86967
G1 X150.643 Y87.47 E9.89525
G1 X150.751 Y87.988 E9.91285
G1 X150.913 Y88.927 E9.94454
G1 X151.004 Y89.691 E9.97013
G1 X151.016 Y90.46 E9.99571
G1 X150.975 Y91.011 E10.01409
G1 X150.867 Y91.973 E10.04629
G1 X150.741 Y92.731 E10.07184
G1 X150.538 Y93.473 E10.09743
G1 X150.349 Y93.98 E10.11542
G1 X132.771 Y136.398 E11.6426
G1 X132.44 Y137.092 E11.66817
G1 X132.039 Y137.748 E11.69374
G1 X131.572 Y138.359 E11.71932
G1 X131.044 Y138.919 E11.74492
G1 X130.46 Y139.42 E11.77051
G1 X129.86 Y139.838 E11.79483
G1 X129.371 Y140.144 E11.81402
G1 X128.699 Y140.518 E11.8396
G1 X127.992 Y140.819 E11.86515
G1 X127.257 Y141.046 E11.89074
G1 X126.502 Y141.195 E11.91634
G1 X125.736 Y141.265 E11.94192
G1 X124.963 Y141.255 E11.96763
G1 X124.382 Y141.217 E11.987
G1 X123.618 Y141.127 E12.01258
G1 X122.868 Y140.958 E12.03815
G1 X122.031 Y140.669 E12.0676
G1 X85.108 Y125.363 E13.397
G1 X84.414 Y125.032 E13.42258
G1 X83.758 Y124.631 E13.44815
G1 X83.052 Y124.081 E13.47792
G1 X82.818 Y123.875 E13.48829
G1 X82.268 Y123.338 E13.51385
G1 X81.777 Y122.746 E13.53943
G1 X81.26 Y121.952 E13.57095
G1 X81.104 Y121.675 E13.58152
G1 X80.762 Y120.986 E13.6071
G1 X80.493 Y120.266 E13.63267
G1 X80.27 Y119.361 E13.66367
G1 X80.215 Y119.057 E13.67394
G1 X80.118 Y118.294 E13.69953
G1 X80.097 Y117.731 E13.71826
G1 X80.13 Y89.804 E14.64712
G1 X80.171 Y89.036 E14.6727
G1 X80.291 Y88.277 E14.69826
G1 X80.424 Y87.746 E14.71647
G1 X80.698 Y86.804 E14.7491
G1 X80.951 Y86.078 E14.77467
G1 X81.278 Y85.382 E14.80024
G1 X81.569 Y84.885 E14.8194
G1 X82.097 Y84.059 E14.852
G1 X82.544 Y83.434 E14.87756
G1 X83.054 Y82.858 E14.90315
M204 S5000
M205 X30 Y30
G0 F3600 X83.368 Y83.109
M204 S500
M205 X20 Y20
G1 F1800 X83.745 Y82.758 E14.92028
G1 X84.485 Y82.116 E14.95287
G1 X85.075 Y81.656 E14.97775
G1 X85.711 Y81.263 E15.00262
G1 X86.144 Y81.045 E15.01874
G1 X87.032 Y80.636 E15.05126
G1 X87.727 Y80.36 E15.07613
G1 X88.448 Y80.159 E15.10102
G1 X88.942 Y80.068 E15.11773
G1 X89.908 Y79.926 E15.1502
G1 X90.931 Y79.852 E15.18432
G1 X140.654 Y79.885 E16.83811
G1 X141.401 Y79.925 E16.86299
G1 X142.139 Y80.045 E16.88786
G1 X142.568 Y80.153 E16.90258
G1 X143.501 Y80.419 E16.93484
G1 X144.209 Y80.662 E16.95974
G1 X144.886 Y80.98 E16.98462
G1 X145.302 Y81.221 E17.00061
G1 X146.123 Y81.736 E17.03284
G1 X146.734 Y82.167 E17.05771
G1 X147.296 Y82.661 E17.0826
G1 X147.614 Y82.993 E17.09789
G1 X148.248 Y83.7 E17.12947
G1 X148.717 Y84.282 E17.15433
G1 X149.122 Y84.912 E17.17924
G1 X149.339 Y85.327 E17.19482
G1 X149.761 Y86.2 E17.22707
G1 X150.05 Y86.889 E17.25192
G1 X150.264 Y87.606 E17.27681
G1 X150.357 Y88.056 E17.29209
G1 X150.519 Y88.995 E17.32378
G1 X150.607 Y89.738 E17.34867
G1 X150.615 Y90.486 E17.37355
G1 X150.577 Y90.966 E17.38956
G1 X150.469 Y91.928 E17.42176
G1 X150.346 Y92.666 E17.44665
G1 X150.145 Y93.386 E17.47151
G1 X149.98 Y93.827 E17.48717
G1 X132.402 Y136.245 E19.01434
G1 X132.079 Y136.92 E19.03923
G1 X131.686 Y137.556 E19.0641
G1 X131.227 Y138.147 E19.08898
G1 X130.708 Y138.686 E19.11387
G1 X130.134 Y139.166 E19.13876
G1 X129.648 Y139.499 E19.15835
G1 X129.159 Y139.805 E19.17754
G1 X128.505 Y140.167 E19.2024
G1 X127.815 Y140.458 E19.22731
G1 X127.099 Y140.673 E19.25217
G1 X126.364 Y140.811 E19.27705
G1 X125.618 Y140.869 E19.30193
G1 X124.989 Y140.856 E19.32286
G1 X124.408 Y140.818 E19.34222
G1 X123.665 Y140.729 E19.36711
G1 X122.936 Y140.562 E19.39199
G1 X122.184 Y140.299 E19.41848
G1 X85.261 Y124.993 E20.74788
G1 X84.587 Y124.67 E20.77274
G1 X83.95 Y124.277 E20.79764
G1 X83.317 Y123.781 E20.82438
G1 X83.083 Y123.575 E20.83475
G1 X82.548 Y123.052 E20.85964
G1 X82.073 Y122.474 E20.88452
G1 X81.609 Y121.756 E20.91295
G1 X81.453 Y121.479 E20.92353
G1 X81.121 Y120.808 E20.94843
G1 X80.863 Y120.106 E20.9733
G1 X80.664 Y119.29 E21.00124
G1 X80.609 Y118.986 E21.01151
G1 X80.515 Y118.244 E21.03639
G1 X80.497 Y117.732 E21.05343
G1 X80.53 Y89.805 E21.98229
G1 X80.571 Y89.058 E22.00717
G1 X80.691 Y88.319 E22.03207
G1 X80.809 Y87.858 E22.0479
G1 X81.083 Y86.916 E22.08053
G1 X81.33 Y86.21 E22.1054
G1 X81.651 Y85.534 E22.13029
G1 X81.906 Y85.101 E22.14701
G1 X82.434 Y84.275 E22.17961
G1 X82.87 Y83.667 E22.2045
G1 X83.368 Y83.109 E22.22937
M204 S5000
M205 X30 Y30
G0 F3600 X83.682 Y83.361
M204 S500
M205 X20 Y20
G1 F1800 X84.007 Y83.06 E22.24411
G1 X84.747 Y82.418 E22.27669
G1 X85.321 Y81.973 E22.30085
G1 X85.94 Y81.593 E22.32501
G1 X86.311 Y81.408 E22.33879
G1 X87.199 Y80.999 E22.37131
G1 X87.874 Y80.732 E22.39545
G1 X88.575 Y80.541 E22.41962
G1 X89 Y80.464 E22.43399
G1 X89.966 Y80.322 E22.46646
G1 X90.93 Y80.252 E22.49861
G1 X140.653 Y80.285 E24.1524
G1 X141.379 Y80.325 E24.17658
G1 X142.095 Y80.445 E24.20073
G1 X142.459 Y80.538 E24.21323
G1 X143.392 Y80.804 E24.24549
G1 X144.078 Y81.041 E24.26963
G1 X144.734 Y81.352 E24.29378
G1 X145.089 Y81.56 E24.30747
G1 X145.91 Y82.075 E24.3397
G1 X146.503 Y82.494 E24.36385
G1 X147.047 Y82.976 E24.38802
G1 X147.317 Y83.26 E24.40106
G1 X147.951 Y83.967 E24.43264
G1 X148.405 Y84.533 E24.45678
G1 X148.795 Y85.146 E24.48094
G1 X148.979 Y85.501 E24.49424
G1 X149.401 Y86.374 E24.52649
G1 X149.681 Y87.044 E24.55064
G1 X149.885 Y87.741 E24.5748
G1 X149.963 Y88.124 E24.5878
G1 X150.125 Y89.063 E24.61949
G1 X150.209 Y89.784 E24.64363
G1 X150.213 Y90.511 E24.66781
G1 X150.18 Y90.921 E24.68149
G1 X150.072 Y91.883 E24.71369
G1 X149.951 Y92.6 E24.73788
G1 X149.753 Y93.298 E24.76201
G1 X149.61 Y93.674 E24.77539
G1 X132.032 Y136.092 E26.30256
G1 X131.718 Y136.746 E26.32669
G1 X131.333 Y137.363 E26.35088
G1 X130.883 Y137.933 E26.37503
G1 X130.373 Y138.45 E26.39918
G1 X129.809 Y138.908 E26.42335
G1 X129.436 Y139.16 E26.43832
G1 X128.947 Y139.466 E26.45751
G1 X128.311 Y139.817 E26.48167
G1 X127.64 Y140.096 E26.50584
G1 X126.943 Y140.299 E26.52998
G1 X126.228 Y140.425 E26.55413
G1 X125.503 Y140.471 E26.57829
G1 X125.015 Y140.457 E26.59453
G1 X124.434 Y140.419 E26.6139
G1 X123.713 Y140.332 E26.63805
G1 X123.006 Y140.166 E26.6622
G1 X122.338 Y139.93 E26.68577
G1 X85.415 Y124.624 E28.01517
G1 X84.76 Y124.309 E28.03934
G1 X84.144 Y123.925 E28.06348
G1 X83.581 Y123.481 E28.08733
G1 X83.347 Y123.275 E28.0977
G1 X82.829 Y122.766 E28.12186
G1 X82.37 Y122.203 E28.14602
G1 X81.957 Y121.56 E28.17143
G1 X81.801 Y121.283 E28.18201
G1 X81.48 Y120.631 E28.20618
G1 X81.233 Y119.948 E28.23034
G1 X81.057 Y119.219 E28.25528
G1 X81.002 Y118.915 E28.26555
G1 X80.913 Y118.194 E28.28972
G1 X80.897 Y117.732 E28.30509
G1 X80.93 Y89.805 E29.23395
G1 X80.971 Y89.08 E29.2581
G1 X81.091 Y88.364 E29.28225
G1 X81.193 Y87.97 E29.29578
G1 X81.467 Y87.028 E29.32841
G1 X81.708 Y86.342 E29.3526
G1 X82.022 Y85.688 E29.37673
G1 X82.243 Y85.316 E29.39112
G1 X82.771 Y84.49 E29.42372
G1 X83.195 Y83.901 E29.44786
G1 X83.682 Y83.361 E29.47205
M204 S5000
M205 X30 Y30
G0 F3600 X83.995 Y83.615
M204 S500
M205 X20 Y20
G1 F1800 X84.269 Y83.362 E29.48445
G1 X85.009 Y82.72 E29.51703
G1 X85.566 Y82.289 E29.54046
G1 X86.478 Y81.772 E29.57533
G1 X87.366 Y81.363 E29.60784
G1 X88.021 Y81.105 E29.63126
G1 X88.701 Y80.923 E29.65467
G1 X89.058 Y80.86 E29.66673
G1 X90.024 Y80.718 E29.6992
G1 X90.93 Y80.652 E29.72942
G1 X140.653 Y80.685 E31.38321
G1 X141.356 Y80.725 E31.40663
G1 X142.349 Y80.923 E31.44031
G1 X143.282 Y81.189 E31.47258
G1 X143.947 Y81.42 E31.49599
G1 X144.877 Y81.899 E31.53079
G1 X145.698 Y82.414 E31.56302
G1 X146.272 Y82.821 E31.58642
G1 X147.019 Y83.527 E31.62061
G1 X147.653 Y84.234 E31.65219
G1 X148.092 Y84.784 E31.6756
G1 X148.619 Y85.675 E31.71003
G1 X149.041 Y86.548 E31.74228
G1 X149.311 Y87.198 E31.76569
G1 X149.569 Y88.192 E31.79985
G1 X149.731 Y89.131 E31.83154
G1 X149.811 Y89.83 E31.85494
G1 X149.782 Y90.877 E31.88978
G1 X149.674 Y91.839 E31.92197
G1 X149.556 Y92.533 E31.94539
G1 X149.241 Y93.521 E31.97988
G1 X131.663 Y135.939 E33.50705
G1 X131.357 Y136.573 E33.53046
G1 X130.981 Y137.168 E33.55387
G1 X130.54 Y137.717 E33.57729
G1 X130.04 Y138.212 E33.6007
G1 X129.224 Y138.821 E33.63456
G1 X128.735 Y139.127 E33.65375
G1 X128.118 Y139.466 E33.67716
G1 X127.466 Y139.733 E33.7006
G1 X126.789 Y139.924 E33.72399
G1 X126.094 Y140.037 E33.74741
G1 X125.041 Y140.058 E33.78244
G1 X124.46 Y140.02 E33.80181
G1 X123.762 Y139.934 E33.8252
G1 X123.077 Y139.77 E33.84863
G1 X122.491 Y139.56 E33.86933
G1 X85.568 Y124.254 E35.19873
G1 X84.934 Y123.948 E35.22214
G1 X84.339 Y123.572 E35.24555
G1 X83.845 Y123.181 E35.26651
G1 X83.611 Y122.975 E35.27688
G1 X83.11 Y122.48 E35.3003
G1 X82.668 Y121.932 E35.32372
G1 X82.306 Y121.363 E35.34615
G1 X82.15 Y121.086 E35.35672
G1 X81.84 Y120.454 E35.38013
G1 X81.603 Y119.791 E35.40355
G1 X81.451 Y119.148 E35.42553
G1 X81.396 Y118.844 E35.4358
G1 X81.31 Y118.145 E35.45923
G1 X81.297 Y117.733 E35.47294
G1 X81.33 Y89.806 E36.40179
G1 X81.371 Y89.103 E36.42522
G1 X81.577 Y88.081 E36.45989
G1 X81.851 Y87.139 E36.49252
G1 X82.085 Y86.476 E36.51591
G1 X82.394 Y85.843 E36.53933
G1 X82.58 Y85.532 E36.55139
G1 X83.108 Y84.706 E36.58399
G1 X83.52 Y84.135 E36.60741
G1 X83.995 Y83.615 E36.63084
M204 S5000
M205 X30 Y30
G0 F3600 X84.531 Y83.664
M204 S500
M205 X20 Y20
G1 F1800 X85.271 Y83.022 E36.66342
G1 X85.811 Y82.607 E36.68607
G1 X86.646 Y82.135 E36.71797
G1 X87.534 Y81.726 E36.75049
G1 X88.168 Y81.478 E36.77313
G1 X89.116 Y81.256 E36.80552
G1 X90.082 Y81.114 E36.83799
G1 X90.93 Y81.052 E36.86627
G1 X140.653 Y81.085 E38.52007
G1 X141.333 Y81.125 E38.54272
G1 X142.239 Y81.307 E38.57346
G1 X143.172 Y81.573 E38.60573
G1 X143.815 Y81.798 E38.62838
G1 X144.664 Y82.238 E38.66019
G1 X145.485 Y82.753 E38.69242
G1 X146.04 Y83.148 E38.71508
G1 X146.721 Y83.794 E38.7463
G1 X147.355 Y84.501 E38.77789
G1 X147.779 Y85.033 E38.80051
G1 X148.259 Y85.849 E38.832
G1 X148.681 Y86.722 E38.86425
G1 X148.941 Y87.351 E38.88689
G1 X149.175 Y88.26 E38.91811
G1 X149.337 Y89.199 E38.9498
G1 X149.413 Y89.876 E38.97246
G1 X149.385 Y90.832 E39.00427
G1 X149.277 Y91.794 E39.03647
G1 X149.161 Y92.465 E39.05911
G1 X148.871 Y93.367 E39.09063
G1 X131.293 Y135.785 E40.6178
G1 X130.996 Y136.398 E40.64045
G1 X130.629 Y136.972 E40.66311
G1 X130.198 Y137.498 E40.68573
G1 X129.707 Y137.971 E40.70841
G1 X129.012 Y138.482 E40.7371
G1 X128.523 Y138.788 E40.75628
G1 X127.925 Y139.114 E40.77894
G1 X127.294 Y139.369 E40.80157
G1 X126.637 Y139.547 E40.82421
G1 X125.963 Y139.648 E40.84688
G1 X125.067 Y139.659 E40.87668
G1 X124.486 Y139.621 E40.89605
G1 X123.811 Y139.536 E40.91868
G1 X123.15 Y139.374 E40.94131
G1 X122.644 Y139.191 E40.95921
G1 X85.721 Y123.885 E42.28861
G1 X85.108 Y123.588 E42.31126
G1 X84.535 Y123.221 E42.3339
G1 X84.11 Y122.88 E42.35202
G1 X83.876 Y122.674 E42.36239
G1 X83.392 Y122.195 E42.38504
G1 X82.967 Y121.663 E42.40768
G1 X82.654 Y121.167 E42.42719
G1 X82.498 Y120.89 E42.43777
G1 X82.2 Y120.278 E42.46041
G1 X81.975 Y119.636 E42.48303
G1 X81.845 Y119.077 E42.50212
G1 X81.79 Y118.773 E42.5124
G1 X81.708 Y118.097 E42.53504
G1 X81.697 Y117.733 E42.54716
G1 X81.73 Y89.806 E43.47601
G1 X81.771 Y89.126 E43.49867
G1 X81.961 Y88.193 E43.53034
G1 X82.235 Y87.251 E43.56297
G1 X82.463 Y86.61 E43.5856
G1 X82.917 Y85.747 E43.61803
G1 X83.445 Y84.921 E43.65064
G1 X83.845 Y84.37 E43.67328
G1 X84.531 Y83.664 E43.70602
M204 S5000
M205 X30 Y30
G0 F3600 X84.169 Y84.606
M204 S500
M205 X20 Y20
G1 F1800 X84.793 Y83.966 E43.73575
G1 X85.533 Y83.324 E43.76834
G1 X86.055 Y82.925 E43.79019
G1 X86.813 Y82.498 E43.81913
G1 X87.701 Y82.089 E43.85164
G1 X88.313 Y81.851 E43.87348
G1 X89.175 Y81.651 E43.90292
G1 X90.141 Y81.509 E43.93539
G1 X90.93 Y81.452 E43.9617
G1 X140.653 Y81.485 E45.6155
G1 X141.308 Y81.525 E45.63732
G1 X142.13 Y81.692 E45.66522
G1 X143.063 Y81.958 E45.69749
G1 X143.682 Y82.176 E45.71932
G1 X144.452 Y82.577 E45.74819
G1 X145.273 Y83.092 E45.78042
G1 X145.807 Y83.474 E45.80226
G1 X146.423 Y84.061 E45.83056
G1 X147.057 Y84.768 E45.86215
G1 X147.465 Y85.283 E45.884
G1 X147.899 Y86.023 E45.91253
G1 X148.321 Y86.896 E45.94478
G1 X148.57 Y87.504 E45.96664
G1 X148.78 Y88.328 E45.99492
G1 X148.942 Y89.267 E46.02661
G1 X149.014 Y89.92 E46.04846
G1 X148.987 Y90.787 E46.07731
G1 X148.879 Y91.749 E46.10951
G1 X148.766 Y92.397 E46.13139
G1 X148.502 Y93.214 E46.15995
G1 X130.924 Y135.632 E47.68712
G1 X130.636 Y136.223 E47.70898
G1 X130.278 Y136.774 E47.73084
G1 X129.856 Y137.278 E47.7527
G1 X129.376 Y137.726 E47.77454
G1 X128.8 Y138.143 E47.79819
G1 X128.311 Y138.449 E47.81738
G1 X127.733 Y138.763 E47.83925
G1 X127.123 Y139.004 E47.86107
G1 X126.487 Y139.17 E47.88293
G1 X125.836 Y139.257 E47.90478
